X: 7
T: Brendan Tonra's
C: Brendan Tonra
Z: jmeme
S: https://thesession.org/tunes/451#setting48333
R: jig
M: 6/8
L: 1/8
K: Cmaj
|:EDE GED|DCA, G,A,C|EDE FEF|GcA GED|
EDE GED|DCA, G,A,C|EDE FEF|AGE C2D:|
|:e2 c cBc|dcB ABc|e2c cBc|AGE D2d|
e2c cBc|dcB ABc|ege fdB|dcB c2d:|

